X:1
T:Title
%%score ( 1 2 ) ( 3 4 )
L:1/8
Q:1/4=95
M:4/4
K:Bb
V:1 treble nm="Grand Piano, Soprano"
V:2 treble 
V:3 bass nm="Choir Pad, Bass"
V:4 bass 
V:1
 [B,D][CE][DF][DF] [DF][DF] [DF]2 | [DB][FA][EG][EG] [EG][EG] [EG]2 | %2
w: By~Herbert~J.~Lacey * * * * * *||
 [Gc][GB][FA][FA] [FA][FA][EA][EF] | [EG][EA] [DB]6 | [DB][Ec][Fd][Fd] [Fd][Ec] [DB]2 | %5
w: |||
 [DB][DB][Ec][Ec] [Fd][Fd] [Ge]2 | [Gc][Gc][FB][FB] [FB][FB][EB][EA] | [EG][EA] [DB]6 | %8
w: |||
 [Fd]2 [Fd][Fd] [Fd][Fd][Fd][DB] | z2 c6 | [Fc]2 [Ec][Ec] [Ec][Ec][Ec][EA] | z2 B6 | %12
w: ||||
 [DB][Ec][Fd][Fd] [Fd][Ec] [DB]2 | [DB][DB][Ec][Ec] [Fd][Fd] [Ge]2 | %14
w: ||
 [Gc][Gc][FB][FB] [FB][FB][EB][EA] | [EG][EA] [DB]6- | [DB]2 z2 z4 |] %17
w: |||
V:2
 x8 | x8 | x8 | x8 | x8 | x8 | x8 | x8 | x8 | [EA][DB]FF FF F2 | x8 | [EG][EF] D2 EE D2 | x8 | x8 | %14
 x8 | x8 | x8 |] %17
V:3
 [B,,F,][B,,F,][B,,B,][B,,B,] [B,,B,][B,,B,] [B,,B,]2 | %1
 [B,,F,][B,,B,][E,B,][E,B,] [E,B,][E,B,] [E,B,]2 | [E,B,][E,E][F,C][F,C] [F,C][F,C][F,C][F,A,] | %3
 [F,B,][F,C] [B,,B,]6 | [B,,B,][B,,B,][B,,B,][B,,B,] [B,,B,][B,,B,] [B,,B,]2 | %5
 [B,,F,][B,,F,][E,G,][E,G,] [D,G,][D,G,] [C,G,]2 | [E,C][E,C][F,D][F,D] [F,D][F,D][F,C][F,C] | %7
 [F,B,][F,C] [B,,B,]6 | [B,,B,]2 [B,,B,][B,,B,] [B,,B,][B,,B,][B,,B,][B,,B,] | %9
 [C,F,][B,,F,][F,A,][F,A,] [F,A,][F,A,] [F,A,]2 | [F,A,]2 [F,A,][F,A,] [F,A,][F,A,][F,A,][F,C] | %11
 [F,B,][F,A,]B,F, G,G, F,2 | [B,,B,][B,,B,][B,,B,][B,,B,] [B,,B,][B,,B,] [B,,B,]2 | %13
 [B,,F,][B,,F,][E,G,][E,G,] [D,G,][D,G,] [C,G,]2 | [E,C][E,C][F,D][F,D] [F,D][F,D][F,C][F,C] | %15
 [F,B,][F,C] [B,,B,]6- | [B,,B,]2 z2 z4 |] %17
V:4
 x8 | x8 | x8 | x8 | x8 | x8 | x8 | x8 | x8 | x8 | x8 | z2 B,,6 | x8 | x8 | x8 | x8 | x8 |] %17

